X: 47
T:Foxhunter's Reel
R:Reel
M:C|
L:1/8
Q:1/2=112
K:A
|:e2cA eAcA|eAcA BAFA|e2cA eAcA|BdcA BAFA:|
|:~E3c cBAF|EAcA BAFA|~E3c cBAc|BdcA BAFA:|
|:afec ABce|aece fbbg|afec ABcA|Bcde fB~B2:|
|:eaag ~a3f|eaae faec|eaag ~a3e|faec BABc:|
|:A2cA eAcB|AccA BABc|A2cA eAce|faec BABc:|
